frontend/src/shared/assets/icons/apple.svg

<svg width="20" height="24" viewBox="0 0 20 24" fill="none" xmlns="http://www.w3.org/2000/svg">
<path d="M16.7034 12.7504C16.7379 16.3825 19.9643 17.5911 20 17.6065C19.9727 17.6917 19.4845 19.3289 18.3002 21.0199C17.2765 22.482 16.2139 23.9386 14.5401 23.9688C12.8956 23.9984 12.3666 23.0159 10.4863 23.0159C8.60657 23.0159 8.019 23.9386 6.46212 23.9984C4.8465 24.0582 3.61619 22.4175 2.584 20.9608C0.474629 17.9812 -1.13732 12.5409 1.02713 8.86871C2.10236 7.04504 4.024 5.89031 6.10962 5.86069C7.69611 5.83115 9.1936 6.90359 10.1634 6.90359C11.1327 6.90359 12.9524 5.6139 14.8655 5.80329C15.6663 5.83588 17.9144 6.11932 19.3579 8.1839C19.2415 8.25436 16.6755 9.71398 16.7034 12.7505M13.6125 3.83199C14.4703 2.81748 15.0476 1.40527 14.8901 0C13.6537 0.0485496 12.1587 0.805039 11.2718 1.81893C10.477 2.71687 9.78103 4.15397 9.96884 5.53138C11.347 5.63558 12.7547 4.8471 13.6125 3.83199Z" fill="#1E1E1E"/>
</svg>

<svg xmlns="http://www.w3.org/2000/svg" width="20" height="24" fill="none"><path fill="#1E1E1E" d="M16.703 12.75c.035 3.633 3.261 4.841 3.297 4.857-.027.085-.515 1.722-1.7 3.413-1.024 1.462-2.086 2.919-3.76 2.949-1.644.03-2.173-.953-4.054-.953-1.88 0-2.467.923-4.024.982-1.615.06-2.846-1.58-3.878-3.037-2.11-2.98-3.721-8.42-1.557-12.092C2.102 7.045 4.024 5.89 6.11 5.86c1.586-.03 3.084 1.043 4.053 1.043.97 0 2.79-1.29 4.703-1.1.8.032 3.048.315 4.492 2.38-.117.07-2.683 1.53-2.655 4.567m-3.09-8.919C14.47 2.817 15.048 1.405 14.89 0c-1.236.049-2.731.805-3.618 1.819-.795.898-1.491 2.335-1.303 3.712 1.378.105 2.786-.684 3.644-1.699Z"/></svg>
